mimes/32/x-office-spreadsheet.svg

<?xml version="1.0" encoding="UTF-8" standalone="no"?>
<svg
   xmlns:dc="http://purl.org/dc/elements/1.1/"
   xmlns:cc="http://creativecommons.org/ns#"
   xmlns:rdf="http://www.w3.org/1999/02/22-rdf-syntax-ns#"
   xmlns:svg="http://www.w3.org/2000/svg"
   xmlns="http://www.w3.org/2000/svg"
   xmlns:xlink="http://www.w3.org/1999/xlink"
   xmlns:sodipodi="http://sodipodi.sourceforge.net/DTD/sodipodi-0.dtd"
   xmlns:inkscape="http://www.inkscape.org/namespaces/inkscape"
   version="1.1"
   width="32"
   height="32"
   id="svg3182"
   inkscape:version="0.91 r13725"
   sodipodi:docname="x-office-spreadsheet.svg">
  <sodipodi:namedview
     pagecolor="#ffffff"
     bordercolor="#666666"
     borderopacity="1"
     objecttolerance="10"
     gridtolerance="10"
     guidetolerance="10"
     inkscape:pageopacity="0"
     inkscape:pageshadow="2"
     inkscape:window-width="640"
     inkscape:window-height="480"
     id="namedview1357" />
  <defs
     id="defs3184">
    <linearGradient
       id="linearGradient3977">
      <stop
         id="stop3979"
         style="stop-color:#ffffff;stop-opacity:1"
         offset="0" />
      <stop
         id="stop3981"
         style="stop-color:#ffffff;stop-opacity:0.23529412"
         offset="0.03626217" />
      <stop
         id="stop3983"
         style="stop-color:#ffffff;stop-opacity:0.15686275"
         offset="0.95056331" />
      <stop
         id="stop3985"
         style="stop-color:#ffffff;stop-opacity:0.39215687"
         offset="1" />
    </linearGradient>
    <linearGradient
       id="linearGradient3600-4">
      <stop
         id="stop3602-7"
         style="stop-color:#f4f4f4;stop-opacity:1"
         offset="0" />
      <stop
         id="stop3604-6"
         style="stop-color:#dbdbdb;stop-opacity:1"
         offset="1" />
    </linearGradient>
    <linearGradient
       id="linearGradient3104-5">
      <stop
         id="stop3106-6"
         style="stop-color:#a0a0a0;stop-opacity:1"
         offset="0" />
      <stop
         id="stop3108-9"
         style="stop-color:#bebebe;stop-opacity:1"
         offset="1" />
    </linearGradient>
    <linearGradient
       id="linearGradient5060">
      <stop
         id="stop5062"
         style="stop-color:#000000;stop-opacity:1"
         offset="0" />
      <stop
         id="stop5064"
         style="stop-color:#000000;stop-opacity:0"
         offset="1" />
    </linearGradient>
    <linearGradient
       id="linearGradient5048">
      <stop
         id="stop5050"
         style="stop-color:#000000;stop-opacity:0"
         offset="0" />
      <stop
         id="stop5056"
         style="stop-color:#000000;stop-opacity:1"
         offset="0.5" />
      <stop
         id="stop5052"
         style="stop-color:#000000;stop-opacity:0"
         offset="1" />
    </linearGradient>
    <linearGradient
       xlink:href="#linearGradient3977"
       id="linearGradient3191"
       gradientUnits="userSpaceOnUse"
       gradientTransform="matrix(0.56756757,0,0,0.72972971,2.378382,-2.5135063)"
       x1="23.99999"
       y1="5.5641499"
       x2="23.99999"
       y2="43" />
    <linearGradient
       xlink:href="#linearGradient3600-4"
       id="linearGradient3194"
       gradientUnits="userSpaceOnUse"
       gradientTransform="matrix(0.65714319,0,0,0.63012397,0.228556,-1.0896478)"
       x1="25.132275"
       y1="0.98520643"
       x2="25.132275"
       y2="47.013336" />
    <linearGradient
       xlink:href="#linearGradient3104-5"
       id="linearGradient3196"
       gradientUnits="userSpaceOnUse"
       gradientTransform="matrix(0.53064102,0,0,0.58970216,39.269585,-1.7919079)"
       x1="-51.786404"
       y1="50.786446"
       x2="-51.786404"
       y2="2.9062471" />
    <radialGradient
       xlink:href="#linearGradient5060"
       id="radialGradient3199"
       gradientUnits="userSpaceOnUse"
       gradientTransform="matrix(0.01566318,0,0,0.00823529,17.610433,25.980565)"
       cx="605.71429"
       cy="486.64789"
       fx="605.71429"
       fy="486.64789"
       r="117.14286" />
    <radialGradient
       xlink:href="#linearGradient5060"
       id="radialGradient3202"
       gradientUnits="userSpaceOnUse"
       gradientTransform="matrix(-0.01566318,0,0,0.00823529,14.389566,25.980565)"
       cx="605.71429"
       cy="486.64789"
       fx="605.71429"
       fy="486.64789"
       r="117.14286" />
    <linearGradient
       xlink:href="#linearGradient5048"
       id="linearGradient3205"
       gradientUnits="userSpaceOnUse"
       gradientTransform="matrix(0.04576928,0,0,0.00823529,-0.5423243,25.980548)"
       x1="302.85715"
       y1="366.64789"
       x2="302.85715"
       y2="609.50507" />
    <linearGradient
       id="linearGradient3242-7-3-8-0-4-58-06-2">
      <stop
         id="stop3244-5-8-5-6-4-3-8-7"
         style="stop-color:#cdf87e;stop-opacity:1"
         offset="0" />
      <stop
         id="stop3246-9-5-1-5-3-0-7-3"
         style="stop-color:#a2e34f;stop-opacity:1"
         offset="0.26238" />
      <stop
         id="stop3248-7-2-0-7-5-35-9-6"
         style="stop-color:#68b723;stop-opacity:1"
         offset="0.66093999" />
      <stop
         id="stop3250-8-2-8-5-6-40-4-0"
         style="stop-color:#1d7e0d;stop-opacity:1"
         offset="1" />
    </linearGradient>
    <radialGradient
       xlink:href="#linearGradient3242-7-3-8-0-4-58-06-2"
       id="radialGradient3321"
       gradientUnits="userSpaceOnUse"
       gradientTransform="matrix(0,3.6040583,-5.548623,0,89.067907,-43.601673)"
       cx="11.789304"
       cy="15.03535"
       fx="11.789304"
       fy="15.03535"
       r="12.5" />
  </defs>
  <metadata
     id="metadata3187">
    <rdf:RDF>
      <cc:Work
         rdf:about="">
        <dc:format>image/svg+xml</dc:format>
        <dc:type
           rdf:resource="http://purl.org/dc/dcmitype/StillImage" />
        <dc:title />
      </cc:Work>
    </rdf:RDF>
  </metadata>
  <rect
     style="opacity:0.15;fill:url(#linearGradient3205);fill-opacity:1;fill-rule:nonzero;stroke:none;stroke-width:1;marker:none;visibility:visible;display:inline;overflow:visible"
     id="rect2879"
     y="29"
     x="4.9499893"
     height="2"
     width="22.100021" />
  <path
     style="opacity:0.15;fill:url(#radialGradient3202);fill-opacity:1;fill-rule:nonzero;stroke:none;stroke-width:1;marker:none;visibility:visible;display:inline;overflow:visible"
     id="path2881"
     d="m 4.9499887,29.000086 c 0,0 0,1.99989 0,1.99989 -0.806615,0.0038 -1.950002,-0.448074 -1.950002,-1.000074 0,-0.552 0.900121,-0.999816 1.950002,-0.999816 z" />
  <path
     style="opacity:0.15;fill:url(#radialGradient3199);fill-opacity:1;fill-rule:nonzero;stroke:none;stroke-width:1;marker:none;visibility:visible;display:inline;overflow:visible"
     id="path2883"
     d="m 27.050011,29.000086 c 0,0 0,1.99989 0,1.99989 0.806614,0.0038 1.950002,-0.448074 1.950002,-1.000074 0,-0.552 -0.900122,-0.999816 -1.950002,-0.999816 z" />
  <path
     style="fill:url(#linearGradient3194);fill-opacity:1;stroke:url(#linearGradient3196);stroke-width:0.99992186;stroke-linecap:butt;stroke-linejoin:round;stroke-miterlimit:4;stroke-opacity:1;stroke-dasharray:none;stroke-dashoffset:0;display:inline"
     id="path4160-3"
     d="m 4.499961,0.49996093 c 5.270482,0 23.000037,0.00185 23.000037,0.00185 l 2.8e-5,28.99822807 c 0,0 -15.333376,0 -23.000065,0 0,-9.666692 0,-19.333383 0,-29.00007387 z" />
  <path
     style="fill:none;stroke:url(#linearGradient3191);stroke-width:0.99999994;stroke-linecap:round;stroke-linejoin:round;stroke-miterlimit:4;stroke-opacity:1;stroke-dasharray:none;stroke-dashoffset:0"
     id="rect6741-1"
     d="m 26.5,28.5 -21,0 0,-27 21,0 z" />
  <path
     style="color:#000000;fill:url(#radialGradient3321);fill-opacity:1;fill-rule:nonzero;stroke:none;marker:none;visibility:visible;display:inline;overflow:visible;enable-background:accumulate"
     d="m 11,5 0,2.75 -3,0 0,18.25 4,0 0,-17 12,0 0,-4 z"
     id="path6928" />
  <rect
     style="color:#000000;fill:#c4ec94;fill-opacity:1;fill-rule:nonzero;stroke:none;marker:none;visibility:visible;display:inline;overflow:visible;enable-background:accumulate"
     id="rect3775"
     y="5"
     x="8.0004892"
     height="4"
     width="4" />
  <path
     style="opacity:0.2;fill:#ffffff;fill-rule:evenodd;stroke:#ffffff;stroke-width:1;stroke-linecap:square;stroke-linejoin:round;stroke-miterlimit:4;stroke-opacity:1;stroke-dasharray:none;display:inline"
     id="path4743"
     d="M 8.5004891,6.5093408 22.447497,6.4906566" />
  <path
     id="rect3580"
     style="fill:none;stroke:#0a3900;stroke-width:0.99999994000000003;stroke-linecap:round;stroke-linejoin:miter;stroke-miterlimit:4;stroke-dashoffset:0;stroke-opacity:1;display:inline;opacity:0.40000000000000002;color:#000000;stroke-dasharray:none;marker:none;visibility:visible;overflow:visible;enable-background:accumulate"
     d="m 8.5010796,5.50108 14.9978394,0 0,19.997839 -14.9978394,0 z m 2.9994094,-0.00108 0,19.9999962 m 11.832899,-17.0000023 -14.6667754,0" />
  <path
     id="path3185"
     style="color:#000000;fill:none;stroke:#305d2c;stroke-width:0.99999994;stroke-linecap:butt;stroke-linejoin:miter;stroke-miterlimit:4;stroke-opacity:0.3241762;stroke-dasharray:none;stroke-dashoffset:0;marker:none;visibility:visible;display:inline;overflow:visible;enable-background:accumulate"
     d="m 19.500489,6 0,19 m 3.49951,-1.5 -13.9999976,0 m 13.9999976,-3.000001 -13.9999976,0 m 13.9999996,-3 -14.0000023,0 m 14.0000003,-3 -13.9999977,0 m 13.9999987,-3 -14,0 M 15.500489,6 l 0,19" />
</svg>

<svg xmlns="http://www.w3.org/2000/svg" xmlns:xlink="http://www.w3.org/1999/xlink" viewBox="0 0 32 32"><defs><linearGradient id="a"><stop offset="0" stop-color="#fff"/><stop offset=".036" stop-color="#fff" stop-opacity=".235"/><stop offset=".951" stop-color="#fff" stop-opacity=".157"/><stop offset="1" stop-color="#fff" stop-opacity=".392"/></linearGradient><linearGradient id="b"><stop offset="0" stop-color="#f4f4f4"/><stop offset="1" stop-color="#dbdbdb"/></linearGradient><linearGradient id="c"><stop offset="0" stop-color="#a0a0a0"/><stop offset="1" stop-color="#bebebe"/></linearGradient><linearGradient id="d"><stop offset="0"/><stop offset="1" stop-opacity="0"/></linearGradient><linearGradient id="e"><stop offset="0" stop-opacity="0"/><stop offset=".5"/><stop offset="1" stop-opacity="0"/></linearGradient><linearGradient xlink:href="#a" id="l" gradientUnits="userSpaceOnUse" gradientTransform="matrix(.56757 0 0 .72973 2.378 -2.514)" x1="24" y1="5.564" x2="24" y2="43"/><linearGradient xlink:href="#b" id="j" gradientUnits="userSpaceOnUse" gradientTransform="matrix(.65714 0 0 .63012 .23 -1.09)" x1="25.132" y1=".985" x2="25.132" y2="47.013"/><linearGradient xlink:href="#c" id="k" gradientUnits="userSpaceOnUse" gradientTransform="matrix(.53064 0 0 .5897 39.27 -1.792)" x1="-51.786" y1="50.786" x2="-51.786" y2="2.906"/><radialGradient xlink:href="#d" id="i" gradientUnits="userSpaceOnUse" gradientTransform="matrix(.01566 0 0 .00824 17.61 25.98)" cx="605.714" cy="486.648" fx="605.714" fy="486.648" r="117.143"/><radialGradient xlink:href="#d" id="h" gradientUnits="userSpaceOnUse" gradientTransform="matrix(-.01566 0 0 .00824 14.39 25.98)" cx="605.714" cy="486.648" fx="605.714" fy="486.648" r="117.143"/><linearGradient xlink:href="#e" id="g" gradientUnits="userSpaceOnUse" gradientTransform="matrix(.04577 0 0 .00824 -.542 25.98)" x1="302.857" y1="366.648" x2="302.857" y2="609.505"/><linearGradient id="f"><stop offset="0" stop-color="#cdf87e"/><stop offset=".262" stop-color="#a2e34f"/><stop offset=".661" stop-color="#68b723"/><stop offset="1" stop-color="#1d7e0d"/></linearGradient><radialGradient xlink:href="#f" id="m" gradientUnits="userSpaceOnUse" gradientTransform="matrix(0 3.60406 -5.54862 0 89.068 -43.602)" cx="11.789" cy="15.035" fx="11.789" fy="15.035" r="12.5"/></defs><path opacity=".15" fill="url(#g)" overflow="visible" d="M4.95 29h22.1v2H4.95z"/><path d="M4.95 29v2c-.807.004-1.95-.448-1.95-1s.9-1 1.95-1z" opacity=".15" fill="url(#h)" overflow="visible"/><path d="M27.05 29v2c.807.004 1.95-.448 1.95-1s-.9-1-1.95-1z" opacity=".15" fill="url(#i)" overflow="visible"/><path d="M4.5.5l23 .002V29.5h-23V.5z" fill="url(#j)" stroke="url(#k)" stroke-linejoin="round"/><path d="M26.5 28.5h-21v-27h21z" fill="none" stroke="url(#l)" stroke-linecap="round" stroke-linejoin="round"/><path d="M11 5v2.75H8V26h4V9h12V5z" color="#000" fill="url(#m)" overflow="visible"/><path color="#000" fill="#c4ec94" overflow="visible" d="M8 5h4v4H8z"/><path d="M8.5 6.51l13.947-.02" opacity=".2" fill="#fff" fill-rule="evenodd" stroke="#fff" stroke-linecap="square" stroke-linejoin="round"/><path d="M8.5 5.5h15v20h-15zm3 0v20m11.833-17H8.667" fill="none" stroke="#0a3900" stroke-linecap="round" opacity=".4" color="#000" overflow="visible"/><path d="M19.5 6v19m3.5-1.5H9m14-3H9m14-3H9m14-3H9m14-3H9M15.5 6v19" color="#000" fill="none" stroke="#305d2c" stroke-opacity=".324" overflow="visible"/></svg>
